X:30
T:Ships Are Sailing
C:traditional
Z:transcribed by C.McGrew (clark.mcgrew@sunysb.edu)
R:reel
M:C|
Q:1/2=120
L:1/8
K:E Dorian
ed|"Em"Beed "Bm"BcdB|"D"ADFD ADFD|"Em"EDEF "G"GFGA|"Em"Beef "D"gfed|
"Em"Beed "Bm"BdcB|"D"ADFD ADFD|"Em"EDEF "G"GFGA|"Bm"Bee^d "Em"e2:|
ef|"Em"gfga bgeg|"D"fefg afdf|"Em"gfga bgeg|"Bm"afdf "Em"e2ef|
gfga bgeg|"D"fefg afdf|"G"g2bg "D"f2af|"Em"edef gf:|

